X:3
T:Miss Dorothy Miller
T:Seconds
C:Ryan Canning
R:Slow Air
M:4/4
L:1/8
K:D
[|{g}(f4 f)A/{d}A/ {ge}f>e | {g}e/d/{g}(B B){GdG}(B B){gc}d {g}d>B | {gde}d/B/{G}(A A){g}(A A){GAG}A {g}A/B/{g}d/B/ | {gef}e2 (A2 A){g}A {gAGAG}A>B |
{gc}d2 {g}(d2 d)A/{d}A/ {gc}d>a | {g}a/f/{a}(g g) {f}(g (g)g) {a}g/a/{g}a/g/ | a/g/{a}(f f){g}(f f){e}f {g}e/f/{a}g/a/| {ge}(f2 (f2) f)A/{d}A/ {g}c>A ||
{gc}d2 {g}(d2 d)A/{d}A/ {gc}d>c | {g}d/A/{G}A {g}(A2 A){g}A/{d}A/ {g}c>B | {gc}(d2 (d2) d)A/{d}A/ {g}cd{g}d/{G}d/ | {g}A2 {g}(e2 e)A {gAGAG}A>B |
{gc}d2 {g}(d2 d)A/{d}A/ {gc}d>a | {g}a/f/{a}(g g) {f}(g (g)g) {a}g/a/{g}a/g/ [M:3/4] |  a/g/{a}(f f){g}(f f)a [M:5/4] "Strathspey Tempo"| {g}a2 (g2 (g2) (g2) g2) |]

